svg/fluentui-system-icons/ic_fluent_mention_32_regular.svg

<svg width="32" height="32" viewBox="0 0 32 32" fill="none" xmlns="http://www.w3.org/2000/svg">
<path d="M19.5605 26.411C18.4438 26.7928 17.2461 27 16 27C9.92487 27 5 22.0751 5 16C5 9.92487 9.92487 5 16 5C22.0751 5 27 9.92487 27 16C27 16.5728 26.9554 17.1515 26.8668 17.717C26.5562 19.0276 25.4097 20 24 20C22.3431 20 21 18.6569 21 17V11C21 10.4477 20.5523 10 20 10C19.4477 10 19 10.4477 19 11V11.3714C18.0491 10.5147 16.8296 10 15.5 10C12.4624 10 10 12.6863 10 16C10 19.3137 12.4624 22 15.5 22C17.2459 22 18.8019 21.1125 19.8094 19.7285C20.7017 21.0961 22.2453 22 24 22C26.7614 22 29 19.7614 29 17C29.0251 16.67 29 16.3365 29 16C29 8.8203 23.1797 3 16 3C8.8203 3 3 8.8203 3 16C3 23.1797 8.8203 29 16 29C17.5463 29 19.0295 28.73 20.4052 28.2346C20.7688 28.1037 21 27.752 21 27.3655C21 26.6499 20.2376 26.1795 19.5605 26.411ZM15.5 20C13.7273 20 12 18.3765 12 16C12 13.6235 13.7273 12 15.5 12C17.2727 12 19 13.6235 19 16C19 18.3765 17.2727 20 15.5 20Z" fill="#212121"/>
</svg>

<svg xmlns="http://www.w3.org/2000/svg" width="32" height="32"><path d="M19.56 26.411A10.986 10.986 0 0 1 16 27C9.925 27 5 22.075 5 16S9.925 5 16 5s11 4.925 11 11c0 .573-.045 1.151-.133 1.717C26.557 19.027 25.41 20 24 20a3 3 0 0 1-3-3v-6a1 1 0 1 0-2 0v.371C18.05 10.515 16.83 10 15.5 10c-3.038 0-5.5 2.686-5.5 6s2.462 6 5.5 6c1.746 0 3.302-.887 4.31-2.271A5 5 0 0 0 29 17c.025-.33 0-.663 0-1 0-7.18-5.82-13-13-13S3 8.82 3 16s5.82 13 13 13c1.546 0 3.03-.27 4.405-.765a.915.915 0 0 0 .595-.87c0-.715-.762-1.185-1.44-.954ZM15.5 20c-1.773 0-3.5-1.623-3.5-4s1.727-4 3.5-4 3.5 1.623 3.5 4-1.727 4-3.5 4Z"/></svg>
